svgs/genshin_impact.svg

<svg id="vector" xmlns="http://www.w3.org/2000/svg" width="192" height="192" viewBox="0 0 50.8 50.800003"><path fill="#00000000" d="M19.4942,7.1438C13.6491,9.0331 9.033,13.6493 7.1438,19.4945M43.6563,19.494C41.7676,13.6511 37.1537,9.0364 31.3074,7.1458M7.1458,31.3065C9.0362,37.1532 13.651,41.7675 19.4942,43.6563m11.8132,-0.0021C37.1517,41.7642 41.7643,37.1514 43.6542,31.307M25.4,5.8205C30.8095,23.4196 27.3856,19.9957 44.9795,25.4 27.3856,30.8095 30.8095,27.3856 25.4,44.9795 19.9957,27.3856 23.4196,30.8095 5.8205,25.4 23.4196,19.9957 19.9957,23.4196 25.4,5.8205Z" stroke-linejoin="round" stroke-width="3.175" stroke="#000000" stroke-linecap="round" id="path_0"/></svg>

<svg width="192" height="192" viewBox="0 0 50.8 50.8" xmlns="http://www.w3.org/2000/svg"><path style="fill:none;stroke:#000;stroke-width:3.175;stroke-linecap:round;stroke-linejoin:round;stroke-miterlimit:4;stroke-dasharray:none;stroke-opacity:1" d="M19.494 7.144a19.226 19.226 0 0 0-12.35 12.35m36.512 0A19.224 19.224 0 0 0 31.307 7.146M7.146 31.306a19.224 19.224 0 0 0 12.348 12.35m11.813-.002a19.222 19.222 0 0 0 12.347-12.347M25.4 5.82c5.41 17.6 1.986 14.176 19.58 19.58-17.594 5.41-14.17 1.986-19.58 19.58-5.404-17.594-1.98-14.17-19.58-19.58 17.6-5.404 14.176-1.98 19.58-19.58Z"/></svg>
